X:1
T:Margaret Roach [2]
M:C
L:1/8
R:Air
S:OFarrell \`i Pocket Companion, vol. III (c. 1808)
Z:AK/Fiddlers Companion
K:E Minor
GE | E2E2 GE | E4 GA/B/ | c4 BA | B4 G>A | B2 tre4 | edcBAG | A4 BG | A3G E2 | c4 BA | B4 (AG) | E2E2 G>A | G4E2 | A4 G>A | B3A GE | D4 (EF) | E4 ||
NOTE: the time signature given is clearly an error as the notation is consistently in 3/4 and the melody makes sense thus. Here are the dots with the corrected time signature.
